icons/circle/48/gparted.svg

<svg version="1.1" viewBox="0 0 48 48" xmlns="http://www.w3.org/2000/svg">
 <defs>
  <linearGradient id="bg" x1="1" x2="47" gradientTransform="matrix(0 -1 1 0 -1.5e-6 48)" gradientUnits="userSpaceOnUse">
   <stop style="stop-color:#1a3f50" offset="0"/>
   <stop style="stop-color:#1f4a5e" offset="1"/>
  </linearGradient>
 </defs>
 <path d="m36.31 5c5.859 4.062 9.688 10.831 9.688 18.5 0 12.426-10.07 22.5-22.5 22.5-7.669 0-14.438-3.828-18.5-9.688 1.037 1.822 2.306 3.499 3.781 4.969 4.085 3.712 9.514 5.969 15.469 5.969 12.703 0 23-10.298 23-23 0-5.954-2.256-11.384-5.969-15.469-1.469-1.475-3.147-2.744-4.969-3.781zm4.969 3.781c3.854 4.113 6.219 9.637 6.219 15.719 0 12.703-10.297 23-23 23-6.081 0-11.606-2.364-15.719-6.219 4.16 4.144 9.883 6.719 16.219 6.719 12.703 0 23-10.298 23-23 0-6.335-2.575-12.06-6.719-16.219z" style="opacity:.05"/>
 <path d="m41.28 8.781c3.712 4.085 5.969 9.514 5.969 15.469 0 12.703-10.297 23-23 23-5.954 0-11.384-2.256-15.469-5.969 4.113 3.854 9.637 6.219 15.719 6.219 12.703 0 23-10.298 23-23 0-6.081-2.364-11.606-6.219-15.719z" style="opacity:.1"/>
 <path d="m31.25 2.375c8.615 3.154 14.75 11.417 14.75 21.13 0 12.426-10.07 22.5-22.5 22.5-9.708 0-17.971-6.135-21.12-14.75a23 23 0 0 0 44.875-7 23 23 0 0 0-16-21.875z" style="opacity:.2"/>
 <path d="m24 1c12.703 0 23 10.297 23 23s-10.297 23-23 23-23-10.297-23-23 10.297-23 23-23z" style="fill:url(#bg)"/>
 <g transform="translate(1,1)"></g>
 <path d="m25 10a15 15 0 0 0-6.762 1.629c-1.158-0.824-2.818-0.692-3.859 0.35-0.865 0.865-1.099 2.121-0.691 3.199a15 15 0 0 0-3.688 9.822 15 15 0 0 0 15 15 15 15 0 0 0 15-15 15 15 0 0 0-15-15zm0 9.5a5.5 5.5 0 0 1 5.5 5.5 5.5 5.5 0 0 1-5.5 5.5 5.5 5.5 0 0 1-5.5-5.5 5.5 5.5 0 0 1 1.496-3.762c1.86 1.285 3.443 2.342 3.443 2.342s-0.692-1.674-1.56-3.648a5.5 5.5 0 0 1 2.121-0.432z" style="opacity:.1"/>
 <path d="m40.03 7.531c3.712 4.084 5.969 9.514 5.969 15.469 0 12.703-10.297 23-23 23-5.954 0-11.384-2.256-15.469-5.969 4.178 4.291 10.01 6.969 16.469 6.969 12.703 0 23-10.298 23-23 0-6.462-2.677-12.291-6.969-16.469z" style="opacity:.1"/>
 <path d="m19.383 26.986-7.965 5.154a15 15 0 0 0 12.582 6.859 15 15 0 0 0 7.06-1.77l-4.471-8.381a5.5 5.5 0 0 1-2.586 0.65 5.5 5.5 0 0 1-4.617-2.514" style="fill:#a8cf36"/>
 <path d="m24 9a15 15 0 0 0-15 15 15 15 0 0 0 2.621 8.471l7.844-5.371a5.5 5.5 0 0 1-0.965-3.1 5.5 5.5 0 0 1 5.5-5.5 5.5 5.5 0 0 1 5.5 5.5h9.5a15 15 0 0 0-15-15z" style="fill:#e38c53"/>
 <path d="m29.406 23a5.5 5.5 0 0 1 0.094 1 5.5 5.5 0 0 1-5.5 5.5v9.5a15 15 0 0 0 15-15 15 15 0 0 0-0.049-1z" style="fill:#59a3c8"/>
 <path d="m16.525 11.09c-0.052 0-0.104 0.013-0.156 0.016a15 15 0 0 0-2.709 2.051c-0.351 1.043-0.131 2.235 0.699 3.064 0.973 0.973 3.297 2.676 5.467 4.201a5.5 5.5 0 0 1 2.537-1.666c-1.228-2.712-2.721-5.735-3.713-6.777-0.571-0.6-1.346-0.892-2.125-0.889z" style="opacity:.1"/>
 <path d="m17.651 10.979c1.925 2.02 5.789 11.601 5.789 11.601s-8.03-5.308-10.08-7.359c-1.172-1.172-1.152-3.071 0.02-4.243s3.13-1.2 4.272 0z" style="fill:#f9f9f9"/>
 <circle cx="15.5" cy="13" r="1" style="fill:#868686"/>
</svg>

<svg xmlns="http://www.w3.org/2000/svg" viewBox="0 0 48 48">
 <defs>
  <linearGradient id="linearGradient3764" x1="1" x2="47" gradientUnits="userSpaceOnUse" gradientTransform="matrix(0,-1,1,0,-1.5e-6,47.999998)">
   <stop style="stop-color:#1a3f50;stop-opacity:1"/>
   <stop offset="1" style="stop-color:#1f4a5e;stop-opacity:1"/>
  </linearGradient>
 </defs>
 <g>
  <path d="m 36.31 5 c 5.859 4.062 9.688 10.831 9.688 18.5 c 0 12.426 -10.07 22.5 -22.5 22.5 c -7.669 0 -14.438 -3.828 -18.5 -9.688 c 1.037 1.822 2.306 3.499 3.781 4.969 c 4.085 3.712 9.514 5.969 15.469 5.969 c 12.703 0 23 -10.298 23 -23 c 0 -5.954 -2.256 -11.384 -5.969 -15.469 c -1.469 -1.475 -3.147 -2.744 -4.969 -3.781 z m 4.969 3.781 c 3.854 4.113 6.219 9.637 6.219 15.719 c 0 12.703 -10.297 23 -23 23 c -6.081 0 -11.606 -2.364 -15.719 -6.219 c 4.16 4.144 9.883 6.719 16.219 6.719 c 12.703 0 23 -10.298 23 -23 c 0 -6.335 -2.575 -12.06 -6.719 -16.219 z" style="opacity:0.05"/>
  <path d="m 41.28 8.781 c 3.712 4.085 5.969 9.514 5.969 15.469 c 0 12.703 -10.297 23 -23 23 c -5.954 0 -11.384 -2.256 -15.469 -5.969 c 4.113 3.854 9.637 6.219 15.719 6.219 c 12.703 0 23 -10.298 23 -23 c 0 -6.081 -2.364 -11.606 -6.219 -15.719 z" style="opacity:0.1"/>
  <path d="m 31.25 2.375 c 8.615 3.154 14.75 11.417 14.75 21.13 c 0 12.426 -10.07 22.5 -22.5 22.5 c -9.708 0 -17.971 -6.135 -21.12 -14.75 a 23 23 0 0 0 44.875 -7 a 23 23 0 0 0 -16 -21.875 z" style="opacity:0.2"/>
 </g>
 <g>
  <path d="m 24 1 c 12.703 0 23 10.297 23 23 c 0 12.703 -10.297 23 -23 23 -12.703 0 -23 -10.297 -23 -23 0 -12.703 10.297 -23 23 -23 z" style="fill:url(#linearGradient3764);fill-opacity:1"/>
 </g>
 <g>
  <g>
   <g transform="translate(1,1)">
    <g style="opacity:0.1">
     <!-- color: #1f4a5e -->
    </g>
   </g>
  </g>
 </g>
 <g>
  <g>
   <!-- color: #1f4a5e -->
  </g>
 </g>
 <path d="M 25 10 A 15 15 0 0 0 18.238 11.629 C 17.08 10.805 15.42 10.937 14.379 11.979 C 13.514 12.844 13.28 14.1 13.688 15.178 A 15 15 0 0 0 10 25 A 15 15 0 0 0 25 40 A 15 15 0 0 0 40 25 A 15 15 0 0 0 25 10 z M 25 19.5 A 5.5 5.5 0 0 1 30.5 25 A 5.5 5.5 0 0 1 25 30.5 A 5.5 5.5 0 0 1 19.5 25 A 5.5 5.5 0 0 1 20.996 21.238 C 22.856 22.523 24.439 23.58 24.439 23.58 C 24.439 23.58 23.747 21.906 22.879 19.932 A 5.5 5.5 0 0 1 25 19.5 z" style="fill:#000;opacity:1;fill-opacity:0.098;stroke:none"/>
 <g>
  <path d="m 40.03 7.531 c 3.712 4.084 5.969 9.514 5.969 15.469 0 12.703 -10.297 23 -23 23 c -5.954 0 -11.384 -2.256 -15.469 -5.969 4.178 4.291 10.01 6.969 16.469 6.969 c 12.703 0 23 -10.298 23 -23 0 -6.462 -2.677 -12.291 -6.969 -16.469 z" style="opacity:0.1"/>
 </g>
 <g>
  <path d="m 19.383 26.986 -7.965 5.154 a 15 15 0 0 0 12.582 6.859 15 15 0 0 0 7.06 -1.77 l -4.471 -8.381 a 5.5 5.5 0 0 1 -2.586 0.65 5.5 5.5 0 0 1 -4.617 -2.514" style="fill:#a8cf36;opacity:1;fill-opacity:1;stroke:none"/>
  <path d="M 24 9 A 15 15 0 0 0 9 24 A 15 15 0 0 0 11.621 32.471 L 19.465 27.1 A 5.5 5.5 0 0 1 18.5 24 A 5.5 5.5 0 0 1 24 18.5 A 5.5 5.5 0 0 1 29.5 24 L 39 24 A 15 15 0 0 0 24 9 z" style="fill:#e38c53;opacity:1;fill-opacity:1;stroke:none"/>
  <path d="M 29.406 23 A 5.5 5.5 0 0 1 29.5 24 A 5.5 5.5 0 0 1 24 29.5 L 24 39 A 15 15 0 0 0 39 24 A 15 15 0 0 0 38.951 23 L 29.406 23 z" style="fill:#59a3c8;opacity:1;fill-opacity:1;stroke:none"/>
  <path d="m 16.525 11.09 c -0.052 0 -0.104 0.013 -0.156 0.016 a 15 15 0 0 0 -2.709 2.051 c -0.351 1.043 -0.131 2.235 0.699 3.064 c 0.973 0.973 3.297 2.676 5.467 4.201 a 5.5 5.5 0 0 1 2.537 -1.666 c -1.228 -2.712 -2.721 -5.735 -3.713 -6.777 c -0.571 -0.6 -1.346 -0.892 -2.125 -0.889 z" style="fill:#000;opacity:0.1;fill-opacity:1;stroke:none"/>
  <path d="m 17.651 10.979 c 1.925 2.02 5.789 11.601 5.789 11.601 0 0 -8.03 -5.308 -10.08 -7.359 -1.172 -1.172 -1.152 -3.071 0.02 -4.243 1.172 -1.172 3.13 -1.2 4.272 0 z" style="fill:#f9f9f9;opacity:1;fill-opacity:1;stroke:none"/>
  <circle r="1" cy="13" cx="15.5" style="fill:#868686;opacity:1;fill-opacity:1;stroke:none"/>
 </g>
</svg>
